X:1
T:D minor Oliver Holden, 1800
T:Nahum Tate and Nicholas Brady, 1698 (Psalm 71)   86. 86. (C. M.)
T:Cuba No copyright. Transcribed from Plain Psalmody , 1800; Revision and Counter by B. C. Johnston, 2015.
%%score [ 1 2 3 4 ]
L:1/8
M:4/4
K:G
V:1 treble nm="Treble" snm="Tr."
V:2 treble nm="Counter" snm="C."
V:3 treble-8 nm="Tenor" snm="T."
V:4 bass nm="Bass" snm="B."
V:1
 B4 | B2 B2 B2 e2 | B2 A2 G4 | z4 B4 | d2 B2 G2 A2 | B8 | e4 ^d2 f2 | B2 G2 B2 AG | F4 z4 | %9
 F4 G2 B2 | AG F2 E4- | E4 |] %12
V:2
 G4 | G2 G2 G2 G2 | E2 A2 B4 | z4 E4 | E2 E2 D2 A2 | G8 | B4 F2 F2 | G2 G2 E2 FG | F4 z4 | %9
w: 1.~While|some on me with|won- der gaze,|Thy|hand sup- ports me|still;|Thy ho- nor,|there- fore, and Thy *|praise|
 ^D4 E2 G2 | FG A2 B4- | B4 |] %12
w: My mouth shall|al- * ways fill.~|_|
V:3
 B4 | e2 e2 B2 B2 | G2 A2 B4- | B4 G4 | B2 e2 B2 c2 | d8 | G4 B2 B2 | G2 B2 e2 f2 | ^d8 | %9
 B4 B2 e2 | fe ^d2 e4- | e4 |] %12
V:4
 E,4 | E,2 E,2 E,2 E,2 | G,2 F,2 E,4- | E,4 G,4 | E,2 E,2 D,2 D,2 | G,8 | E,4 B,,2 B,,2 | %7
 E,2 E,2 G,2 F,E, | B,,8 | B,,4 E,2 E,2 | A,,2 B,,2 E,4- | E,4 |] %12

